X:1
T:Czerny op. 599 n. 63
T:Czerny op. 599 n. 63
%%score { 1 | 2 }
L:1/8
Q:1/4=116
M:4/4
K:D
V:1 treble nm="Piano" snm="Pno."
V:2 bass 
V:1
"^Allegretto"!f! (3!1!def (3!1!ga!3!b (3!>!a!1!g!3!f (3ed!2!c | (3!1!def (3gab (3!>!agf (3ed!2!c | %2
!<(! (3!1!d!3!fe (3dfe!<)!!>(! (3dfe (3def!>)! |!p! (3!4!gag (3!3!fgf !2!e z z2 | %4
!f!!8va(! (3!1!abc' (3!1!d'e'!3!f' (3!>!e'!1!d'!3!c' (3ba!2!^g | %5
!p! (3!1!abc' (3d'e'f' (3!>!e'd'c' (3ba^g | %6
!<(! (3ab!3!c' (3!1!d'e'f'!<)!!>(! (3!4!=g'f'!5!a' (3g'f'e'!>)! | %7
!p! (3!1!d'!5!a'!3!f' (3d'a'f' d'2 z2!8va)! :: %8
!mf!!8va(! (3!3!c''!5!e''d'' (3c''b'!1!a' (3!3!g'!5!b'a' (3g'f'!1!e' | %9
 (3!3!f'a'g' (3f'e'd' (3f'a'g' (3f'e'd'!8va)! | (3!3!c'e'd' (3c'b!1!a (3!3!gba (3gfe | %11
 (3!3!fag (3fed (3fag (3fed |"_cresc." (3!3!fed (3fed (3fed (3!4!agf | %13
 (3egf (3egf (3egf (3e!3!g!5!b | (3!4!a^gb (3a=g!2!f (3!3!g!2!f!5!a (3gfe |!f! (3daf (3daf d2 z2 :| %16
V:2
 !2!!1![DF]2 !5!A,2 [EG]2 A,2 | [DF]2 A,2 [EG]2 A,2 | [DF]2 A,2 [DF]2 A,2 | [CE]2 G,2 [CE]2 A,2 | %4
 !3!!2!!1![CEG]2 A,2 [CEG]2 A,2 | [CEG]2 A,2 [CEG]2 A,2 | [CEG]2 A,2 [CEG]2 A,2 | %7
 .[DF]2 .[DF]2 .[DF]2 z2 :: !3!!1![CE]2 G,2 [CE]2 A,2 | [DF]2 A,2 [DF]2 A,2 | [CE]2 G,2 [CE]2 A,2 | %11
 [DF]2 A,2 [DF]2 A,2 | .!4![F,A,D]2 .[F,A,D]2 .[F,A,D]2 .[F,A,D]2 | %13
 .!5![G,B,E]2 .[G,B,E]2 .[G,B,E]2 .[G,B,E]2 | .[A,DF]2 .[A,DF]2 .!5!!3!!1![A,CG]2 .[A,CG]2 | %15
 .!2!!1![DF]2 .[DF]2 .!3!!1![DF]2 z2 :| %16

